src/assets/icons/turkish-lira.svg

<svg width="14" height="14" viewBox="0 0 14 14" fill="none" xmlns="http://www.w3.org/2000/svg">
<g id="turkish-lira">
<g clip-path="url(#clip0_295_4739)">
<path id="Vector" fill-rule="evenodd" clip-rule="evenodd" d="M5.40008 0C5.73145 0 6.00008 0.268629 6.00008 0.6V3.50124L9.90716 2.03807C10.2175 1.92186 10.5633 2.07922 10.6795 2.38954C10.7957 2.69987 10.6383 3.04564 10.328 3.16186L6.00008 4.78263V5.30124L9.90716 3.83807C10.2175 3.72186 10.5633 3.87922 10.6795 4.18954C10.7957 4.49987 10.6383 4.84564 10.328 4.96186L6.00008 6.58263V12.7687C8.89441 12.4656 11.2001 9.99661 11.2001 7C11.2001 6.66863 11.4687 6.4 11.8001 6.4C12.1314 6.4 12.4001 6.66863 12.4001 7C12.4001 10.8682 9.2274 14 5.40008 14C5.06871 14 4.80008 13.7314 4.80008 13.4V7.03202L2.4105 7.9269C2.10018 8.04311 1.7544 7.88575 1.63819 7.57543C1.52197 7.2651 1.67933 6.91933 1.98965 6.80311L4.80008 5.75063V5.23202L2.4105 6.1269C2.10018 6.24311 1.7544 6.08575 1.63819 5.77543C1.52197 5.4651 1.67933 5.11933 1.98965 5.00311L4.80008 3.95063V0.6C4.80008 0.268629 5.06871 0 5.40008 0Z" fill="black"/>
</g>
</g>
<defs>
<clipPath id="clip0_295_4739">
<rect width="14" height="14" fill="white"/>
</clipPath>
</defs>
</svg>

<svg xmlns="http://www.w3.org/2000/svg" fill="none" viewBox="0 0 14 14"><g clip-path="url(#a)"><path fill="#000" fill-rule="evenodd" d="M5.4 0a.6.6 0 0 1 .6.6v2.901l3.907-1.463a.6.6 0 1 1 .421 1.124L6 4.782v.52l3.907-1.464a.6.6 0 1 1 .421 1.124L6 6.582v6.187c2.894-.303 5.2-2.772 5.2-5.769a.6.6 0 1 1 1.2 0c0 3.868-3.173 7-7 7a.6.6 0 0 1-.6-.6V7.032l-2.39.895a.6.6 0 0 1-.42-1.124L4.8 5.751v-.519l-2.39.895a.6.6 0 0 1-.42-1.124L4.8 3.951V.6a.6.6 0 0 1 .6-.6" clip-rule="evenodd"/></g><defs><clipPath id="a"><path fill="#fff" d="M0 0h14v14H0z"/></clipPath></defs></svg>
